svg/blobs-icons/no-decorations/calendar.svg

<svg xmlns="http://www.w3.org/2000/svg" xmlns:xlink="http://www.w3.org/1999/xlink" preserveAspectRatio="xMidYMid" width="210" height="216" viewBox="0 0 210 216"><defs><style>.cls-3{fill:#fbb713}.cls-4{fill:#ff3a2f}.cls-5{fill:#000;opacity:.35}.cls-9{fill:#142a3b}.cls-12{fill:#ededed}</style></defs><g id="group-113svg"><path d="M193.018 21.202s-23.801.0-23.801.0.0 8.301.0 8.301C169.217 35.255 164.504 39.918 158.689 39.918H157.811C151.997 39.918 147.283 35.255 147.283 29.503V21.202s-31.908.0-31.908.0.0 8.301.0 8.301C115.375 35.255 110.662 39.918 104.847 39.918h-.878C98.155 39.918 93.442 35.255 93.442 29.503V21.202s-34.986.0-34.986.0.0 8.301.0 8.301c0 5.752-4.713 10.415-10.527 10.415H47.05c-5.814.0-10.527-4.663-10.527-10.415V21.202s-20.726.0-20.726.0C7.074 21.202.006 28.195.006 36.823V199.9C.006 208.532 7.074 215.525 15.797 215.525H193.018C201.742 215.525 208.81 208.532 208.81 199.9V36.823C208.81 28.195 201.742 21.202 193.018 21.202z" id="path-1" class="cls-3" fill-rule="evenodd"/><path d="M208.81 75.511s0-38.688.0-38.688C208.81 28.195 201.742 21.202 193.018 21.202H169.217s0 8.301.0 8.301C169.217 35.255 164.504 39.918 158.689 39.918H157.811C151.997 39.918 147.283 35.255 147.283 29.503V21.202s-31.908.0-31.908.0.0 8.301.0 8.301C115.375 35.255 110.662 39.918 104.847 39.918h-.878C98.155 39.918 93.442 35.255 93.442 29.503V21.202s-34.986.0-34.986.0.0 8.301.0 8.301c0 5.752-4.713 10.415-10.527 10.415H47.05c-5.814.0-10.527-4.663-10.527-10.415V21.202s-20.726.0-20.726.0C7.074 21.202.006 28.195.006 36.823V75.511s208.804.0 208.804.0z" id="path-2" class="cls-4" fill-rule="evenodd"/><path d="M193.019 21.202s-10.104.0-10.104.0C191.639 21.202 198.707 28.195 198.707 36.823V199.9C198.707 208.532 191.639 215.525 182.915 215.525h10.104C201.742 215.525 208.81 208.532 208.81 199.9V36.823C208.81 28.195 201.742 21.202 193.019 21.202z" id="path-3" class="cls-5" fill-rule="evenodd"/><path d="M114.072 39.918S114.951 39.918 114.951 39.918C120.765 39.918 125.478 35.255 125.478 29.503V21.202s-10.103.0-10.103.0.0 8.301.0 8.301C115.375 33.609 112.951 37.127 109.46 38.823 110.858 39.502 112.41 39.918 114.072 39.918z" id="path-4" class="cls-5" fill-rule="evenodd"/><path d="M167.915 39.918S168.793 39.918 168.793 39.918C174.607 39.918 179.32 35.255 179.32 29.503V21.202s-10.103.0-10.103.0.0 8.301.0 8.301C169.217 33.609 166.793 37.127 163.302 38.823 164.7 39.502 166.252 39.918 167.915 39.918z" id="path-5" class="cls-5" fill-rule="evenodd"/><path d="M57.153 39.918S58.032 39.918 58.032 39.918c5.814.0 10.527-4.663 10.527-10.415V21.202s-10.103.0-10.103.0.0 8.301.0 8.301C58.456 33.609 56.032 37.127 52.541 38.823 53.94 39.502 55.491 39.918 57.153 39.918z" id="path-6" class="cls-5" fill-rule="evenodd"/><path d="M47.929-.008S47.05-.008 47.05-.008c-5.814.0-10.527 4.664-10.527 10.417V21.202s0 8.302.0 8.302C36.523 35.254 41.236 39.918 47.05 39.918H47.929c5.814.0 10.527-4.664 10.527-10.414V21.202s0-10.793.0-10.793c0-5.753-4.713-10.417-10.527-10.417z" id="path-7" class="cls-9" fill-rule="evenodd"/><path d="M104.847-.008s-.878.0-.878.0C98.155-.008 93.441 4.656 93.441 10.409V21.202s0 8.302.0 8.302c0 5.75 4.714 10.414 10.528 10.414h.878C110.662 39.918 115.375 35.254 115.375 29.504V21.202s0-10.793.0-10.793C115.375 4.656 110.662-.008 104.847-.008z" id="path-8" class="cls-9" fill-rule="evenodd"/><path d="M158.689-.008S157.811-.008 157.811-.008C151.997-.008 147.283 4.656 147.283 10.409V21.202s0 8.302.0 8.302C147.283 35.254 151.997 39.918 157.811 39.918H158.689c5.815.0 10.528-4.664 10.528-10.414V21.202s0-10.793.0-10.793C169.217 4.656 164.504-.008 158.689-.008z" id="path-9" class="cls-9" fill-rule="evenodd"/><path d="M59.122 114.705c0 6.56-5.377 11.882-12.007 11.882-6.633.0-12.01-5.322-12.01-11.882.0-6.55799999999999 5.377-11.88 12.01-11.88 6.63.0 12.007 5.322 12.007 11.88z" id="path-10" class="cls-12" fill-rule="evenodd"/><path d="M116.416 113.577c0 6.56-5.37599999999999 11.881-12.008 11.881S92.4 120.137 92.4 113.577C92.4 107.016 97.776 101.697 104.408 101.697s12.008 5.319 12.008 11.88z" id="path-11" class="cls-12" fill-rule="evenodd"/><path d="M173.713 115.829C173.713 122.39 168.335 127.712 161.706 127.712 155.074 127.712 149.695 122.39 149.695 115.829 149.695 109.268 155.074 103.95 161.706 103.95c6.62900000000002.0 12.007 5.318 12.007 11.879z" id="path-12" class="cls-12" fill-rule="evenodd"/><path d="M59.12 166.365C59.12 172.926 53.743 178.243 47.111 178.243 40.481 178.243 35.104 172.926 35.104 166.365 35.104 159.803 40.481 154.481 47.111 154.481 53.743 154.481 59.12 159.803 59.12 166.365z" id="path-13" class="cls-12" fill-rule="evenodd"/><path d="M116.415 165.237c0 6.56100000000001-5.378 11.878-12.01 11.878C97.775 177.115 92.397 171.798 92.397 165.237 92.397 158.675 97.775 153.354 104.405 153.354c6.63200000000001.0 12.01 5.321 12.01 11.883z" id="path-14" class="cls-12" fill-rule="evenodd"/><path d="M173.711 167.49c0 6.56-5.37700000000001 11.877-12.008 11.877C155.07 179.367 149.695 174.05 149.695 167.49c0-6.56200000000001 5.375-11.883 12.008-11.883 6.631.0 12.008 5.321 12.008 11.883z" id="path-15" class="cls-12" fill-rule="evenodd"/><path d="M57.143 108.195C58.387 110.065 59.122 112.298 59.122 114.705c0 6.56-5.377 11.882-12.007 11.882-2.466.0-4.755-.741-6.662-2.00200000000001C42.6 127.814 46.284 129.954 50.482 129.954 57.112 129.954 62.49 124.633 62.49 118.073 62.49 113.953 60.365 110.325 57.143 108.195z" id="path-16" class="cls-5" fill-rule="evenodd"/><path d="M114.437 107.066c1.244 1.87 1.979 4.104 1.979 6.511.0 6.56-5.37599999999999 11.881-12.008 11.881C101.943 125.458 99.654 124.718 97.748 123.458 99.894 126.686 103.578 128.827 107.776 128.827 114.409 128.827 119.784 123.504 119.784 116.945 119.784 112.823 117.659 109.195 114.437 107.066z" id="path-17" class="cls-5" fill-rule="evenodd"/><path d="M171.734 109.318C172.978 111.191 173.713 113.422 173.713 115.829 173.713 122.39 168.335 127.712 161.706 127.712 159.24 127.712 156.95 126.971 155.044 125.71 157.19 128.94 160.875 131.08 165.073 131.08c6.63.0 12.008-5.32200000000002 12.008-11.883C177.081 115.075 174.956 111.449 171.734 109.318z" id="path-18" class="cls-5" fill-rule="evenodd"/><path d="M57.14 159.851C58.385 161.723 59.121 163.957 59.121 166.365c0 6.56-5.378 11.878-12.01 11.878C44.646 178.243 42.357 177.504 40.45 176.243 42.597 179.471 46.281 181.61 50.479 181.61 57.111 181.61 62.488 176.293 62.488 169.733 62.488 165.611 60.363 161.982 57.14 159.851z" id="path-19" class="cls-5" fill-rule="evenodd"/><path d="M114.434 158.723C115.679 160.594 116.414 162.828 116.414 165.237c0 6.56100000000001-5.377 11.878-12.009 11.878C101.94 177.115 99.651 176.376 97.744 175.115 99.891 178.344 103.575 180.483 107.773 180.483c6.631.0 12.009-5.31800000000001 12.009-11.879C119.782 164.482 117.656 160.855 114.434 158.723z" id="path-20" class="cls-5" fill-rule="evenodd"/><path d="M171.731 160.975C172.975 162.848 173.711 165.081 173.711 167.49c0 6.56-5.37700000000001 11.879-12.008 11.879C159.237 179.369 156.947 178.629 155.041 177.368 157.187 180.597 160.871 182.735 165.07 182.735 171.702 182.735 177.079 177.418 177.079 170.857 177.079 166.734 174.954 163.106 171.731 160.975z" id="path-21" class="cls-5" fill-rule="evenodd"/></g></svg>

<svg xmlns="http://www.w3.org/2000/svg" xmlns:xlink="http://www.w3.org/1999/xlink" preserveAspectRatio="xMidYMid" width="210" height="216" viewBox="0 0 210 216">
  <defs>
    <style>

      .cls-3 {
        fill: #fbb713;
      }

      .cls-4 {
        fill: #ff3a2f;
      }

      .cls-5 {
        fill: #000000;
        opacity: 0.35;
      }

      .cls-9 {
        fill: #142a3b;
      }

      .cls-12 {
        fill: #ededed;
      }
    </style>
  </defs>
  <g id="group-113svg">
    <path d="M193.018,21.202 C193.018,21.202 169.217,21.202 169.217,21.202 C169.217,21.202 169.217,29.503 169.217,29.503 C169.217,35.255 164.504,39.918 158.689,39.918 C158.689,39.918 157.811,39.918 157.811,39.918 C151.997,39.918 147.283,35.255 147.283,29.503 C147.283,29.503 147.283,21.202 147.283,21.202 C147.283,21.202 115.375,21.202 115.375,21.202 C115.375,21.202 115.375,29.503 115.375,29.503 C115.375,35.255 110.662,39.918 104.847,39.918 C104.847,39.918 103.969,39.918 103.969,39.918 C98.155,39.918 93.442,35.255 93.442,29.503 C93.442,29.503 93.442,21.202 93.442,21.202 C93.442,21.202 58.456,21.202 58.456,21.202 C58.456,21.202 58.456,29.503 58.456,29.503 C58.456,35.255 53.743,39.918 47.929,39.918 C47.929,39.918 47.050,39.918 47.050,39.918 C41.236,39.918 36.523,35.255 36.523,29.503 C36.523,29.503 36.523,21.202 36.523,21.202 C36.523,21.202 15.797,21.202 15.797,21.202 C7.074,21.202 0.006,28.195 0.006,36.823 C0.006,36.823 0.006,199.900 0.006,199.900 C0.006,208.532 7.074,215.525 15.797,215.525 C15.797,215.525 193.018,215.525 193.018,215.525 C201.742,215.525 208.810,208.532 208.810,199.900 C208.810,199.900 208.810,36.823 208.810,36.823 C208.810,28.195 201.742,21.202 193.018,21.202 Z" id="path-1" class="cls-3" fill-rule="evenodd"/>
    <path d="M208.810,75.511 C208.810,75.511 208.810,36.823 208.810,36.823 C208.810,28.195 201.742,21.202 193.018,21.202 C193.018,21.202 169.217,21.202 169.217,21.202 C169.217,21.202 169.217,29.503 169.217,29.503 C169.217,35.255 164.504,39.918 158.689,39.918 C158.689,39.918 157.811,39.918 157.811,39.918 C151.997,39.918 147.283,35.255 147.283,29.503 C147.283,29.503 147.283,21.202 147.283,21.202 C147.283,21.202 115.375,21.202 115.375,21.202 C115.375,21.202 115.375,29.503 115.375,29.503 C115.375,35.255 110.662,39.918 104.847,39.918 C104.847,39.918 103.969,39.918 103.969,39.918 C98.155,39.918 93.442,35.255 93.442,29.503 C93.442,29.503 93.442,21.202 93.442,21.202 C93.442,21.202 58.456,21.202 58.456,21.202 C58.456,21.202 58.456,29.503 58.456,29.503 C58.456,35.255 53.743,39.918 47.929,39.918 C47.929,39.918 47.050,39.918 47.050,39.918 C41.236,39.918 36.523,35.255 36.523,29.503 C36.523,29.503 36.523,21.202 36.523,21.202 C36.523,21.202 15.797,21.202 15.797,21.202 C7.074,21.202 0.006,28.195 0.006,36.823 C0.006,36.823 0.006,75.511 0.006,75.511 C0.006,75.511 208.810,75.511 208.810,75.511 Z" id="path-2" class="cls-4" fill-rule="evenodd"/>
    <path d="M193.019,21.202 C193.019,21.202 182.915,21.202 182.915,21.202 C191.639,21.202 198.707,28.195 198.707,36.823 C198.707,36.823 198.707,199.900 198.707,199.900 C198.707,208.532 191.639,215.525 182.915,215.525 C182.915,215.525 193.019,215.525 193.019,215.525 C201.742,215.525 208.810,208.532 208.810,199.900 C208.810,199.900 208.810,36.823 208.810,36.823 C208.810,28.195 201.742,21.202 193.019,21.202 Z" id="path-3" class="cls-5" fill-rule="evenodd"/>
    <path d="M114.072,39.918 C114.072,39.918 114.951,39.918 114.951,39.918 C120.765,39.918 125.478,35.255 125.478,29.503 C125.478,29.503 125.478,21.202 125.478,21.202 C125.478,21.202 115.375,21.202 115.375,21.202 C115.375,21.202 115.375,29.503 115.375,29.503 C115.375,33.609 112.951,37.127 109.460,38.823 C110.858,39.502 112.410,39.918 114.072,39.918 Z" id="path-4" class="cls-5" fill-rule="evenodd"/>
    <path d="M167.915,39.918 C167.915,39.918 168.793,39.918 168.793,39.918 C174.607,39.918 179.320,35.255 179.320,29.503 C179.320,29.503 179.320,21.202 179.320,21.202 C179.320,21.202 169.217,21.202 169.217,21.202 C169.217,21.202 169.217,29.503 169.217,29.503 C169.217,33.609 166.793,37.127 163.302,38.823 C164.700,39.502 166.252,39.918 167.915,39.918 Z" id="path-5" class="cls-5" fill-rule="evenodd"/>
    <path d="M57.153,39.918 C57.153,39.918 58.032,39.918 58.032,39.918 C63.846,39.918 68.559,35.255 68.559,29.503 C68.559,29.503 68.559,21.202 68.559,21.202 C68.559,21.202 58.456,21.202 58.456,21.202 C58.456,21.202 58.456,29.503 58.456,29.503 C58.456,33.609 56.032,37.127 52.541,38.823 C53.940,39.502 55.491,39.918 57.153,39.918 Z" id="path-6" class="cls-5" fill-rule="evenodd"/>
    <path d="M47.929,-0.008 C47.929,-0.008 47.050,-0.008 47.050,-0.008 C41.236,-0.008 36.523,4.656 36.523,10.409 C36.523,10.409 36.523,21.202 36.523,21.202 C36.523,21.202 36.523,29.504 36.523,29.504 C36.523,35.254 41.236,39.918 47.050,39.918 C47.050,39.918 47.929,39.918 47.929,39.918 C53.743,39.918 58.456,35.254 58.456,29.504 C58.456,29.504 58.456,21.202 58.456,21.202 C58.456,21.202 58.456,10.409 58.456,10.409 C58.456,4.656 53.743,-0.008 47.929,-0.008 Z" id="path-7" class="cls-9" fill-rule="evenodd"/>
    <path d="M104.847,-0.008 C104.847,-0.008 103.969,-0.008 103.969,-0.008 C98.155,-0.008 93.441,4.656 93.441,10.409 C93.441,10.409 93.441,21.202 93.441,21.202 C93.441,21.202 93.441,29.504 93.441,29.504 C93.441,35.254 98.155,39.918 103.969,39.918 C103.969,39.918 104.847,39.918 104.847,39.918 C110.662,39.918 115.375,35.254 115.375,29.504 C115.375,29.504 115.375,21.202 115.375,21.202 C115.375,21.202 115.375,10.409 115.375,10.409 C115.375,4.656 110.662,-0.008 104.847,-0.008 Z" id="path-8" class="cls-9" fill-rule="evenodd"/>
    <path d="M158.689,-0.008 C158.689,-0.008 157.811,-0.008 157.811,-0.008 C151.997,-0.008 147.283,4.656 147.283,10.409 C147.283,10.409 147.283,21.202 147.283,21.202 C147.283,21.202 147.283,29.504 147.283,29.504 C147.283,35.254 151.997,39.918 157.811,39.918 C157.811,39.918 158.689,39.918 158.689,39.918 C164.504,39.918 169.217,35.254 169.217,29.504 C169.217,29.504 169.217,21.202 169.217,21.202 C169.217,21.202 169.217,10.409 169.217,10.409 C169.217,4.656 164.504,-0.008 158.689,-0.008 Z" id="path-9" class="cls-9" fill-rule="evenodd"/>
    <path d="M59.122,114.705 C59.122,121.265 53.745,126.587 47.115,126.587 C40.482,126.587 35.105,121.265 35.105,114.705 C35.105,108.147 40.482,102.825 47.115,102.825 C53.745,102.825 59.122,108.147 59.122,114.705 Z" id="path-10" class="cls-12" fill-rule="evenodd"/>
    <path d="M116.416,113.577 C116.416,120.137 111.040,125.458 104.408,125.458 C97.776,125.458 92.400,120.137 92.400,113.577 C92.400,107.016 97.776,101.697 104.408,101.697 C111.040,101.697 116.416,107.016 116.416,113.577 Z" id="path-11" class="cls-12" fill-rule="evenodd"/>
    <path d="M173.713,115.829 C173.713,122.390 168.335,127.712 161.706,127.712 C155.074,127.712 149.695,122.390 149.695,115.829 C149.695,109.268 155.074,103.950 161.706,103.950 C168.335,103.950 173.713,109.268 173.713,115.829 Z" id="path-12" class="cls-12" fill-rule="evenodd"/>
    <path d="M59.120,166.365 C59.120,172.926 53.743,178.243 47.111,178.243 C40.481,178.243 35.104,172.926 35.104,166.365 C35.104,159.803 40.481,154.481 47.111,154.481 C53.743,154.481 59.120,159.803 59.120,166.365 Z" id="path-13" class="cls-12" fill-rule="evenodd"/>
    <path d="M116.415,165.237 C116.415,171.798 111.037,177.115 104.405,177.115 C97.775,177.115 92.397,171.798 92.397,165.237 C92.397,158.675 97.775,153.354 104.405,153.354 C111.037,153.354 116.415,158.675 116.415,165.237 Z" id="path-14" class="cls-12" fill-rule="evenodd"/>
    <path d="M173.711,167.490 C173.711,174.050 168.334,179.367 161.703,179.367 C155.070,179.367 149.695,174.050 149.695,167.490 C149.695,160.928 155.070,155.607 161.703,155.607 C168.334,155.607 173.711,160.928 173.711,167.490 Z" id="path-15" class="cls-12" fill-rule="evenodd"/>
    <path d="M57.143,108.195 C58.387,110.065 59.122,112.298 59.122,114.705 C59.122,121.265 53.745,126.587 47.115,126.587 C44.649,126.587 42.360,125.846 40.453,124.585 C42.600,127.814 46.284,129.954 50.482,129.954 C57.112,129.954 62.490,124.633 62.490,118.073 C62.490,113.953 60.365,110.325 57.143,108.195 Z" id="path-16" class="cls-5" fill-rule="evenodd"/>
    <path d="M114.437,107.066 C115.681,108.936 116.416,111.170 116.416,113.577 C116.416,120.137 111.040,125.458 104.408,125.458 C101.943,125.458 99.654,124.718 97.748,123.458 C99.894,126.686 103.578,128.827 107.776,128.827 C114.409,128.827 119.784,123.504 119.784,116.945 C119.784,112.823 117.659,109.195 114.437,107.066 Z" id="path-17" class="cls-5" fill-rule="evenodd"/>
    <path d="M171.734,109.318 C172.978,111.191 173.713,113.422 173.713,115.829 C173.713,122.390 168.335,127.712 161.706,127.712 C159.240,127.712 156.950,126.971 155.044,125.710 C157.190,128.940 160.875,131.080 165.073,131.080 C171.703,131.080 177.081,125.758 177.081,119.197 C177.081,115.075 174.956,111.449 171.734,109.318 Z" id="path-18" class="cls-5" fill-rule="evenodd"/>
    <path d="M57.140,159.851 C58.385,161.723 59.121,163.957 59.121,166.365 C59.121,172.925 53.743,178.243 47.111,178.243 C44.646,178.243 42.357,177.504 40.450,176.243 C42.597,179.471 46.281,181.610 50.479,181.610 C57.111,181.610 62.488,176.293 62.488,169.733 C62.488,165.611 60.363,161.982 57.140,159.851 Z" id="path-19" class="cls-5" fill-rule="evenodd"/>
    <path d="M114.434,158.723 C115.679,160.594 116.414,162.828 116.414,165.237 C116.414,171.798 111.037,177.115 104.405,177.115 C101.940,177.115 99.651,176.376 97.744,175.115 C99.891,178.344 103.575,180.483 107.773,180.483 C114.404,180.483 119.782,175.165 119.782,168.604 C119.782,164.482 117.656,160.855 114.434,158.723 Z" id="path-20" class="cls-5" fill-rule="evenodd"/>
    <path d="M171.731,160.975 C172.975,162.848 173.711,165.081 173.711,167.490 C173.711,174.050 168.334,179.369 161.703,179.369 C159.237,179.369 156.947,178.629 155.041,177.368 C157.187,180.597 160.871,182.735 165.070,182.735 C171.702,182.735 177.079,177.418 177.079,170.857 C177.079,166.734 174.954,163.106 171.731,160.975 Z" id="path-21" class="cls-5" fill-rule="evenodd"/>
  </g>
</svg>
